X:1046
M:C|
L:1/8
Q:1/4=120
K:E Minor
d|B<EA>E G/A/B d2| ADF>D FAAd       |B>EGE G/A/B d2 |FD F/G/A/F/ BEE:|
  eBeB   e/e/e g2|Td>efg a/g/f/e/ dg|fbef  d<g``Tf>e|dBAF        GEE|]

